X: 501
T:Tuberosa Csardas
O:Hungary
F: http://www.youtube.com/watch?v=6OIzGgMduLo
S:Deborah Jones VIFD Book
L:1/4
M:4/4
Q:1/4=180
K:Dm
 "D" dddd  |de "D7" c2| "G7" de fe| de "Am" c2| "Dm" d2 c=B| "Am" A2 A2|
 "Gm" dG GG|"G7" GA F2|"C7" GA BA | GA "Dm" F2|"Gm" G2 FE  |"Dm" D2 D2 |



